src/lib/packages/icons/src/assets/filled/badge-check.svg

<svg width="24" height="24" viewBox="0 0 24 24" fill="none" xmlns="http://www.w3.org/2000/svg">
<path fill-rule="evenodd" clip-rule="evenodd" d="M20.1219 9.88002L19.681 9.43901C19.4 9.15801 19.2419 8.77601 19.2419 8.37801V7.757C19.2419 6.101 17.9 4.75902 16.244 4.75902H15.623C15.225 4.75902 14.844 4.60102 14.562 4.32002L14.1209 3.87901C12.9499 2.70801 11.0519 2.70801 9.88094 3.87901L9.4399 4.32002C9.1589 4.60102 8.77698 4.75902 8.37898 4.75902H7.75801C6.10201 4.75902 4.75996 6.101 4.75996 7.757V8.37801C4.75996 8.77601 4.602 9.15701 4.321 9.43901L3.87996 9.88002C2.70896 11.051 2.70896 12.949 3.87996 14.12L4.321 14.561C4.602 14.842 4.75996 15.224 4.75996 15.622V16.243C4.75996 17.899 6.10201 19.241 7.75801 19.241H8.37898C8.77698 19.241 9.1579 19.399 9.4399 19.68L9.88094 20.121C11.0519 21.292 12.9499 21.292 14.1209 20.121L14.562 19.68C14.843 19.399 15.225 19.241 15.623 19.241H16.244C17.9 19.241 19.2419 17.899 19.2419 16.243V15.622C19.2419 15.224 19.4 14.843 19.681 14.561L20.1219 14.12C21.2929 12.949 21.2929 11.051 20.1219 9.88002ZM15.53 10.53L11.53 14.53C11.384 14.676 11.192 14.75 11 14.75C10.808 14.75 10.6159 14.677 10.4699 14.53L8.46992 12.53C8.17692 12.237 8.17692 11.762 8.46992 11.469C8.76293 11.176 9.23796 11.176 9.53096 11.469L11.0009 12.939L14.4709 9.46901C14.7639 9.17601 15.2389 9.17601 15.5319 9.46901C15.8229 9.76201 15.823 10.238 15.53 10.53Z" fill="currentColor"/>
</svg>

<svg xmlns="http://www.w3.org/2000/svg" width="24" height="24" fill="none"><path fill="currentColor" fill-rule="evenodd" d="m20.122 9.88-.441-.441a1.501 1.501 0 0 1-.44-1.061v-.621a2.998 2.998 0 0 0-2.997-2.998h-.621c-.398 0-.779-.158-1.061-.439l-.441-.441a2.998 2.998 0 0 0-4.24 0l-.441.441a1.5 1.5 0 0 1-1.061.439h-.621A2.998 2.998 0 0 0 4.76 7.757v.621c0 .398-.158.779-.439 1.061l-.441.441a2.998 2.998 0 0 0 0 4.24l.441.441a1.5 1.5 0 0 1 .439 1.061v.621a2.998 2.998 0 0 0 2.998 2.998h.621c.398 0 .779.158 1.06.439l.442.441a2.998 2.998 0 0 0 4.24 0l.441-.441a1.5 1.5 0 0 1 1.061-.439h.621a2.998 2.998 0 0 0 2.998-2.998v-.621c0-.398.158-.779.439-1.061l.44-.441a2.998 2.998 0 0 0 0-4.24Zm-4.592.65-4 4a.748.748 0 0 1-1.06 0l-2-2a.75.75 0 1 1 1.061-1.061l1.47 1.47 3.47-3.47a.75.75 0 1 1 1.059 1.061Z" clip-rule="evenodd"/></svg>
